X:3840
T:Lovely Mally. HSJJ.050
O:england
M:6/8
L:1/8
S:HSJ Jackson,Wyresdale,Lancs.1823
R:Jig
A:Lancashire
H:1823
K:D
F|DED dcd|AGF EFG|FED dcd|AGF E2F|DED dcd|AGF EFG|FAF GFA|FDDD2:|
|:A|d2g gga|bgb afa|gag fgf|bgee2f|ded fga|bag fed|BABd2B|AFDD2:|]


